static/characters/chotto_toorimasu_yo/back-standing.svg

<svg height="182" width="160" xmlns="http://www.w3.org/2000/svg" xml:space="preserve" style="fill-rule:evenodd;clip-rule:evenodd;stroke-linejoin:round;stroke-miterlimit:1.5"><path d="M54.321 139.135c-1.404-2.12-.926-21.705 2.239-27.232 4.077-14.487 7.784-28.877 13.91-40.974 17.634-27.893 52.294.963 51.938 20.954-3.541 7.204-6.667 13.699-12.299 21.805-.262.376-2.373 1.881-2.431 6.182-.059 4.456.696 11.303.859 15.468-.73 8.395-9.467 7.673-10.014.534 0 0-34.185-.468-34.649 0-.284.287-1.911.763-1.778 1.459.749 3.92-5.926 4.594-7.775 1.804Z" style="fill:#fff"/><path d="M66.35 79.808c.71-1.167 3.403-7.743 4.068-8.808 18.76-30.05 56.915 5.555 51.283 22.727-.336 1.025-13.868 23.861-14.558 24.72" style="fill:none;stroke:#000;stroke-width:2.5px"/><path d="M54.321 126.668c.362 5.416-.312 10.082 1.076 12.158m0 0c2.914 4.355 8.198 1.864 8.233-1.698m2.72-1.256 32.634-.209m9.414-10.773c.043 4.275.29 10.197 0 12.238-.782 5.509-7.633 4.766-7.635-1.256" style="fill:none;stroke:#000;stroke-width:2.5px" transform="matrix(-1 0 0 1 162.858 0)"/><path d="m52.623 119.075 5.283-16.65 2.59-.026-5.282 16.65zm6.485-20.815 5.283-16.65 2.59-.026-5.282 16.65z"/></svg>

<?xml version="1.0" encoding="UTF-8" standalone="no"?>
<!DOCTYPE svg PUBLIC "-//W3C//DTD SVG 1.1//EN" "http://www.w3.org/Graphics/SVG/1.1/DTD/svg11.dtd">
<svg height="182" width="160" viewBox="0 0 160 182" version="1.1" xmlns="http://www.w3.org/2000/svg" xmlns:xlink="http://www.w3.org/1999/xlink" xml:space="preserve" xmlns:serif="http://www.serif.com/" style="fill-rule:evenodd;clip-rule:evenodd;stroke-linejoin:round;stroke-miterlimit:1.5;">
    <g>
        <path d="M54.321,139.135C52.917,137.015 53.395,117.43 56.56,111.903C60.637,97.416 64.344,83.026 70.47,70.929C88.104,43.036 122.764,71.892 122.408,91.883C118.867,99.087 115.741,105.582 110.109,113.688C109.847,114.064 107.736,115.569 107.678,119.87C107.619,124.326 108.374,131.173 108.537,135.338C107.807,143.733 99.07,143.011 98.523,135.872C98.523,135.872 64.338,135.404 63.874,135.872C63.59,136.159 61.963,136.635 62.096,137.331C62.845,141.251 56.17,141.925 54.321,139.135Z" style="fill:white;"/>
        <path d="M66.35,79.808C67.06,78.641 69.753,72.065 70.418,71C89.178,40.95 127.333,76.555 121.701,93.727C121.365,94.752 107.833,117.588 107.143,118.447" style="fill:none;stroke:black;stroke-width:2.5px;"/>
        <g transform="matrix(-1,0,0,1,162.858,0)">
            <path d="M54.321,126.668C54.683,132.084 54.009,136.75 55.397,138.826" style="fill:none;stroke:black;stroke-width:2.5px;"/>
        </g>
        <g transform="matrix(-1,0,0,1,162.858,0)">
            <path d="M55.397,138.826C58.311,143.181 63.595,140.69 63.63,137.128" style="fill:none;stroke:black;stroke-width:2.5px;"/>
        </g>
        <g transform="matrix(-1,0,0,1,162.858,0)">
            <path d="M66.35,135.872L98.984,135.663" style="fill:none;stroke:black;stroke-width:2.5px;"/>
        </g>
        <g transform="matrix(-1,0,0,1,162.858,0)">
            <path d="M108.398,124.89C108.441,129.165 108.688,135.087 108.398,137.128C107.616,142.637 100.765,141.894 100.763,135.872" style="fill:none;stroke:black;stroke-width:2.5px;"/>
        </g>
        <g transform="matrix(0.302405,-0.953179,1.12606,-0.0112691,-47.0263,138.591)">
            <rect x="19.49" y="83.26" width="17.468" height="2.301"/>
        </g>
        <g transform="matrix(0.302405,-0.953179,1.12606,-0.0112691,-40.5412,117.776)">
            <rect x="19.49" y="83.26" width="17.468" height="2.301"/>
        </g>
    </g>
</svg>
